images/icons/google-podcasts.svg

<svg fill="none" height="24" viewBox="0 0 24 24" width="24" xmlns="http://www.w3.org/2000/svg" xmlns:xlink="http://www.w3.org/1999/xlink"><clipPath id="a"><path d="m0 0h24v24h-24z"/></clipPath><g clip-path="url(#a)"><path d="m1.45557 11.1792v1.6411z" fill="#000"/><path d="m1.45557 11.1792v1.6411" stroke="#0066d9" stroke-linecap="round" stroke-width="2.91"/><path d="m22.5443 11.1792v1.6411z" fill="#000"/><path d="m22.5443 11.1792v1.6411" stroke="#4285f4" stroke-linecap="round" stroke-width="2.91"/><path d="m6.72778 6.2561v5.3676zm0 9.8463v1.6411z" fill="#000"/><path d="m6.72778 6.2561v5.3676m0 4.4787v1.6411" stroke="#ea4335" stroke-linecap="round" stroke-width="2.91"/><path d="m17.2722 12.3756v5.3676zm0-6.11998v1.64105z" fill="#000"/><path d="m17.2722 12.3756v5.3676m0-11.48758v1.64105" stroke="#34a853" stroke-linecap="round" stroke-width="2.91"/><path d="m12 7.62356v8.75224zm0-6.1686v1.64106zm0 19.44784v1.6411z" fill="#000"/><path d="m12 7.62356v8.75224m0-14.92084v1.64106m0 17.80678v1.6411" stroke="#fab908" stroke-linecap="round" stroke-width="2.91"/></g></svg>

<svg width="24" height="24" viewBox="0 0 24 24" fill="none" xmlns="http://www.w3.org/2000/svg">
<g clip-path="url(#clip0_1432_8647)">
<path d="M1.45557 11.1792V12.8203Z" fill="black"/>
<path d="M1.45557 11.1792V12.8203" stroke="#0066D9" stroke-width="2.91" stroke-linecap="round"/>
<path d="M22.5443 11.1792V12.8203Z" fill="black"/>
<path d="M22.5443 11.1792V12.8203" stroke="#4285F4" stroke-width="2.91" stroke-linecap="round"/>
<path d="M6.72778 6.2561V11.6237ZM6.72778 16.1024V17.7435Z" fill="black"/>
<path d="M6.72778 6.2561V11.6237M6.72778 16.1024V17.7435" stroke="#EA4335" stroke-width="2.91" stroke-linecap="round"/>
<path d="M17.2722 12.3756V17.7432ZM17.2722 6.25562V7.89667Z" fill="black"/>
<path d="M17.2722 12.3756V17.7432M17.2722 6.25562V7.89667" stroke="#34A853" stroke-width="2.91" stroke-linecap="round"/>
<path d="M12 7.62356V16.3758ZM12 1.45496V3.09602ZM12 20.9028V22.5439Z" fill="black"/>
<path d="M12 7.62356V16.3758M12 1.45496V3.09602M12 20.9028V22.5439" stroke="#FAB908" stroke-width="2.91" stroke-linecap="round"/>
</g>
<defs>
<clipPath id="clip0_1432_8647">
<rect width="24" height="24" fill="white"/>
</clipPath>
</defs>
</svg>
